X: 1
T: the Waukin' o' the Fauld
R: strathspey
Z: 2020 John Chambers <jc:trillian.mit.edu>
B: BSFC Tune Book XXXV
B: BSFC Session Tune Book 2016 p.12 #1
M: C
L: 1/16
K: Ador
G2 \
| "Am"EA3 A3B A4 g3e | "G"d3B AG3 "C"E4 D3E \
| "G"G3A B3A GE3 DE3 | "G"G3A B3A "Em"G3E DG3 |
| "Am"EA3 A3B A4 G3A | "G"B3A Gd3 "C"e4 "D7"g3a \
| "G"b3a g3e d2ef g3B | "Em"A3G EG3 "Am"A3 |]
B2 \
| "Am"Aa3 a3b "D"a4 g3a | "G"b4 a3g "C"e4 d3e \
| "G"g3a gb3 G3A BG3 | "G"gfga gb3 "Em"G3A BG3 |
| "Am"Aa3 a3b "D"a4 g3f | "Em"e3d eg3 "Am"a4 "D7"g3a \
| "G"(3b2a2g2 (3a2g2e2 d2ef g3B | "Em"A3G EG3 "Am"A3 |]


